X: 35323
T: Roseland, The
R: barndance
M: 4/4
K: Bminor
|:(3Bcd|f>Bd>f e>Ac>e|d>GB>d c>B^A>c|(3BcB (3dcd (3f^ef (3b^ab|(3afd (3Adf a2 (3Bcd|
f>Bd>f e>Ac>e|d>GB>d c>B^A>c|B>fd>B A>ec>A|(3F^Ac d>c B2:|
K:Dmaj
|:(3fg^g|a>fd>c B>eg>a|b>a^g>b a3 b|a2 f2 g3a|g2 e2 f3 g|
a>f2 d>c B>e g>a|b>a ^g>b a2(3fg^g|a>d f>a b>g e>c|d2 (3cde d2|
K:Gmaj
|:(3Bc^c|d>GB>d e>Ac>e|e>Ac>e f>Bd>f|f>Bd>f g2 b>g|a>g e>c A2 d>c|
B>AB>c d2 c>B|(3ABc (3ABc e2 d>c|B>A G>F E>c A>F|G2 (3FGA G2:|


